!!!!SEGMENT: pl-wtm--r-71-n--003_noskowski-zygmunt--powrot-suita-krakowiakow-quasi-andantino.krn
!!!cenid: 18xx:2113
!!!COM: Noskowski, Zygmunt
!!!COM-rismID: pe106604
!!!CDT: 1846/05/02-1909/07/23
!!!CNT: Polish
!!!OPR: Powrót - Suita krakowiaków
!!!OTL: Quasi andantino
!!!OMV: 003
!!!PDT: 1894
!!!AGN: Secular
!!!SMS-siglum: PL-Wtm
!!!SMS-shelfmark: R 71/N
!!!SMS-shelfwork: 001-003 M
!!!SMS-variant:
!!!SMS-altvar:
!!!NIFC-rismSourceID: 1001096000
!!!NIFC-rismChildID: 1001096000
!!!NIFC-islandoraID:
!!!URL-pdf-islandora:
!!!URL-scan:
!!!IIIF:
!!!ONB-nifc: UWAGA: Numeracja krakowiaków zgodna z kolejnością źródłową (I-VIII)
!!!AIN: 1 alto 1 empty 2 piano 1 soprn 1 tenor
!!!key: A
!!!OMD:
!!!OMD-mod: Quasi andantino
!!!filter-modern: sic -sq | shed -e "s/TX(.*):t=P:/tx$1:t=P:/LG" | shed -e "s/yy//" | shed -e "s/:rj/:RJ/L" | shed -k -e "s/([^a-gA-Gn#X-])[<>]/$1/g" | shed -e "s/LO:DY:(a|b|rj)/LO:dy:$1/L" | shed -e "s/-//B" | autostem -r | tie -s  | modori -m | humtr -p
**kern	**kern	**dynam	**kern	**kern	**dynam	**kern	**text	**mod-text	**dynam	**mod-dynam	**kern	**text	**mod-text	**dynam	**mod-dynam	**kern	**text	**mod-text	**dynam	**mod-dynam	**kern	**text	**mod-text	**dynam	**mod-dynam
*group3	*group3	*	*group2	*group2	*	*group1	*	*	*	*	*group1	*	*	*	*	*group1	*	*	*	*	*group1	*	*	*	*
*part6	*part6	*part6	*part5	*part5	*part5	*part4	*	*	*part4	*part4	*part3	*part3	*part3	*part3	*part3	*part2	*part2	*part2	*part2	*part2	*part1	*part1	*part1	*part1	*part1
*staff8	*staff7	*	*staff6	*staff5	*	*staff4	*	*	*	*	*staff3	*staff3	*staff3	*	*	*staff2	*staff2	*staff2	*	*	*staff1	*staff1	*staff1	*	*
*Ipiano	*Iempty	*	*Ipiano	*Ipiano	*	*Iempty	*	*	*	*	*Itenor	*	*	*	*	*Ialto	*	*	*	*	*Isoprn	*	*	*	*
*I"Piano	*I"2do	*	*I"Piano	*I"1mo Pianoforte	*	*I"Bas	*	*	*	*	*I"Tenor	*	*	*	*	*I"Alt	*	*	*	*	*I"Sopran	*	*	*	*
*I'2do	*I'2do	*	*	*I'1mo	*	*I'B	*	*	*	*	*I'T	*	*	*	*	*I'A	*	*	*	*	*I'S	*	*	*	*
*mI"Pianoforte II	*mI"Pianoforte II	*	*mI"Pianoforte I	*mI"Pianoforte I	*	*mI"Basso	*	*	*	*	*mI"Tenore	*	*	*	*	*mI"Alto	*	*	*	*	*mI"Soprano	*	*	*	*
*mI'pf 2	*mI'pf 2	*	*mI'pf 1	*mI'pf 1	*	*	*	*	*	*	*	*	*	*	*	*	*	*	*	*	*	*	*	*	*
*	*	*	*	*	*	*	*	*	*	*	*ITrd8c12 	*	*	*	*	*	*	*	*	*	*	*	*	*	*
*clefF4	*clefF4	*	*clefG2	*clefG2	*	*clefF4	*	*	*	*	*clefG2	*	*	*	*	*clefG2	*	*	*	*	*clefG2	*	*	*	*
*k[f#c#g#]	*k[f#c#g#]	*	*k[f#c#g#]	*k[f#c#g#]	*	*k[f#c#g#]	*	*	*	*	*k[f#c#g#]	*	*	*	*	*k[f#c#g#]	*	*	*	*	*k[f#c#g#]	*	*	*	*
*A:	*A:	*	*A:	*A:	*	*A:	*	*	*	*	*A:	*	*	*	*	*A:	*	*	*	*	*A:	*	*	*	*
*M2/4	*M2/4	*	*M2/4	*M2/4	*	*M2/4	*	*	*	*	*M2/4	*	*	*	*	*M2/4	*	*	*	*	*M2/4	*	*	*	*
=1	=1	=1	=1	=1	=1	=1	=1	=1	=1	=1	=1	=1	=1	=1	=1	=1	=1	=1	=1	=1	=1	=1	=1	=1	=1
*>A	*>A	*	*>A	*>A	*	*>A	*	*	*	*	*>A	*	*	*	*	*>A	*	*	*	*	*>A	*	*	*	*
!	!	!	!	!	!	!	!	!	!	!	!	!	!	!	!	!	!	!	!	!	!LO:TX:a:t=III:mod=	!	!	!	!
!	!LO:TX:a:t=Quasi Andantino.:mod=	!	!	!LO:TX:a:t=Quasi Andantino.:mod=	!	!	!	!	!	!	!	!	!	!	!	!LO:TX:t=P:problem=w t. 1-6 sopran i alt na jednej linii	!	!	!	!	!LO:TX:a:t=Quasi Andantino.:mod=	!	!	!	!
(4AA/	8r	p	(4c#/	(8e/L	p	2r	.	.	.	.	2r	.	.	.	.	2ryy	.	.	.	.	2r	.	.	.	.
.	4E\	.	.	16f#/L	.	.	.	.	.	.	.	.	.	.	.	.	.	.	.	.	.	.	.	.	.
!	!	!	!	!LO:TX:b:t=semplice	!	!	!	!	!	!	!	!	!	!	!	!	!	!	!	!	!	!	!	!	!
.	.	.	.	16e/JJ	.	.	.	.	.	.	.	.	.	.	.	.	.	.	.	.	.	.	.	.	.
4EE/)	.	.	4d/)	8g#/L	.	.	.	.	.	.	.	.	.	.	.	.	.	.	.	.	.	.	.	.	.
.	[8E\	.	.	16a/L	.	.	.	.	.	.	.	.	.	.	.	.	.	.	.	.	.	.	.	.	.
.	.	.	.	16b/JJ)	.	.	.	.	.	.	.	.	.	.	.	.	.	.	.	.	.	.	.	.	.
=2	=2	=2	=2	=2	=2	=2	=2	=2	=2	=2	=2	=2	=2	=2	=2	=2	=2	=2	=2	=2	=2	=2	=2	=2	=2
*	*	*	*	*^	*	*	*	*	*	*	*	*	*	*	*	*	*	*	*	*	*	*	*	*	*
(4AA/	8E\]	.	(4c#/	(8cc#/L	(4a\	.	2r	.	.	.	.	2r	.	.	.	.	2ryy	.	.	.	.	2r	.	.	.	.
.	4E\	.	.	8ff#/J	.	.	.	.	.	.	.	.	.	.	.	.	.	.	.	.	.	.	.	.	.	.
4EE/)	.	.	4d/)	8.ee/L	4g#\)	.	.	.	.	.	.	.	.	.	.	.	.	.	.	.	.	.	.	.	.	.
.	[8E\	.	.	.	.	.	.	.	.	.	.	.	.	.	.	.	.	.	.	.	.	.	.	.	.	.
.	.	.	.	16dd/Jk)	.	.	.	.	.	.	.	.	.	.	.	.	.	.	.	.	.	.	.	.	.	.
=3	=3	=3	=3	=3	=3	=3	=3	=3	=3	=3	=3	=3	=3	=3	=3	=3	=3	=3	=3	=3	=3	=3	=3	=3	=3	=3
(4AA/	8E\]	.	(4e/	(16cc#/LL	4a\	<	2r	.	.	.	.	2r	.	.	.	.	2ryy	.	.	.	.	2r	.	.	.	.
.	.	.	.	16ee/J)	.	.	.	.	.	.	.	.	.	.	.	.	.	.	.	.	.	.	.	.	.	.
.	4E\	.	.	8ee/J	.	.	.	.	.	.	.	.	.	.	.	.	.	.	.	.	.	.	.	.	.	.
4EE/)	.	.	4a/)	(8ff#/L	4cc#\	.	.	.	.	.	.	.	.	.	.	.	.	.	.	.	.	.	.	.	.	.
.	[8E\	.	.	8aa/J)	.	.	.	.	.	.	.	.	.	.	.	.	.	.	.	.	.	.	.	.	.	.
=4	=4	=4	=4	=4	=4	=4	=4	=4	=4	=4	=4	=4	=4	=4	=4	=4	=4	=4	=4	=4	=4	=4	=4	=4	=4	=4
(4BB/	8E\]	.	4.g#/	(8gg#/	4.dd\	[ >	2r	.	.	.	.	2r	.	.	.	.	2ryy	.	.	.	.	2r	.	.	.	.
.	4E\	.	.	4ee/)	.	.	.	.	.	.	.	.	.	.	.	.	.	.	.	.	.	.	.	.	.	.
4EE/)	.	.	.	.	.	.	.	.	.	.	.	.	.	.	.	.	.	.	.	.	.	.	.	.	.	.
.	[8E\	.	8e/ 8g#	8dd/	8r	.	.	.	.	.	.	.	.	.	.	.	.	.	.	.	.	.	.	.	.	.
*	*	*	*	*v	*v	*	*	*	*	*	*	*	*	*	*	*	*	*	*	*	*	*	*	*	*	*
=5	=5	=5	=5	=5	=5	=5	=5	=5	=5	=5	=5	=5	=5	=5	=5	=5	=5	=5	=5	=5	=5	=5	=5	=5	=5
(4AA/	8E\]	.	8e/ 8a	(16cc#\LL	]	2r	.	.	.	.	2r	.	.	.	.	2ryy	.	.	.	.	2r	.	.	.	.
.	.	.	.	16ee\J)	.	.	.	.	.	.	.	.	.	.	.	.	.	.	.	.	.	.	.	.	.
.	4E\	.	8r	8ee\J	.	.	.	.	.	.	.	.	.	.	.	.	.	.	.	.	.	.	.	.	.
4EE/)	.	.	4d/ 4f#	(8.a^/L	.	.	.	.	.	.	.	.	.	.	.	.	.	.	.	.	.	.	.	.	.
.	[8E\	.	.	.	.	.	.	.	.	.	.	.	.	.	.	.	.	.	.	.	.	.	.	.	.
.	.	.	.	16b/Jk)	.	.	.	.	.	.	.	.	.	.	.	.	.	.	.	.	.	.	.	.	.
=6	=6	=6	=6	=6	=6	=6	=6	=6	=6	=6	=6	=6	=6	=6	=6	=6	=6	=6	=6	=6	=6	=6	=6	=6	=6
4AA/	8E\L]	.	8e/L 8a	(16cc#\LL	.	2r	.	.	.	.	2r	.	.	.	.	2ryy	.	.	.	.	2r	.	.	.	.
.	.	.	.	16ff#\J	.	.	.	.	.	.	.	.	.	.	.	.	.	.	.	.	.	.	.	.	.
.	(8E\J	.	8a/J	8cc#\J 8ee	.	.	.	.	.	.	.	.	.	.	.	.	.	.	.	.	.	.	.	.	.
(8FF#/L	8F#\L)	.	4d#X/ 4a	8dd#X\L	.	.	.	.	.	.	.	.	.	.	.	.	.	.	.	.	.	.	.	.	.
8BBB/J)	[8BB\J [8B	.	.	16cc#\L	.	.	.	.	.	.	.	.	.	.	.	.	.	.	.	.	.	.	.	.	.
.	.	.	.	16b\JJ)	.	.	.	.	.	.	.	.	.	.	.	.	.	.	.	.	.	.	.	.	.
!!LO:PB:g=original
=7	=7	=7	=7	=7	=7	=7	=7	=7	=7	=7	=7	=7	=7	=7	=7	=7	=7	=7	=7	=7	=7	=7	=7	=7	=7
(4EE/	8BB\] 8B]	.	4e/ 4g#	(16b\LL	.	2r	.	.	.	.	2r	.	.	.	.	2r	.	.	.	.	2r	.	.	.	.
.	.	.	.	16cc#\	.	.	.	.	.	.	.	.	.	.	.	.	.	.	.	.	.	.	.	.	.
.	4BB\ 4B	.	.	16b\	.	.	.	.	.	.	.	.	.	.	.	.	.	.	.	.	.	.	.	.	.
.	.	.	.	16ee\JJ)	.	.	.	.	.	.	.	.	.	.	.	.	.	.	.	.	.	.	.	.	.
4BBB/)	.	.	(8f#/L 8a	(8ff#\L	.	.	.	.	.	.	.	.	.	.	.	.	.	.	.	.	.	.	.	.	.
.	[8BB\ [8B	.	8d#X/J) 8f#	8cc#\J) 8aa	.	.	.	.	.	.	.	.	.	.	.	.	.	.	.	.	.	.	.	.	.
=8	=8	=8	=8	=8	=8	=8	=8	=8	=8	=8	=8	=8	=8	=8	=8	=8	=8	=8	=8	=8	=8	=8	=8	=8	=8
4EE/	8BB\L] 8B]	.	8e/ 8g#	8b\ 8gg#	.	2r	.	.	.	.	2r	.	.	.	.	2r	.	.	.	.	2r	.	.	.	.
.	(8E\J 8B	.	4e^^/ 4g#	4ee^^\	.	.	.	.	.	.	.	.	.	.	.	.	.	.	.	.	.	.	.	.	.
4r	8F#\L 8dn	.	.	.	.	.	.	.	.	.	.	.	.	.	.	.	.	.	.	.	.	.	.	.	.
.	16E\L 16c#	.	8r	8r	.	.	.	.	.	.	.	.	.	.	.	.	.	.	.	.	.	.	.	.	.
.	16B\JJ)	.	.	.	.	.	.	.	.	.	.	.	.	.	.	.	.	.	.	.	.	.	.	.	.
=9	=9	=9	=9	=9	=9	=9	=9	=9	=9	=9	=9	=9	=9	=9	=9	=9	=9	=9	=9	=9	=9	=9	=9	=9	=9
*	*	*	*	*	*	*	*	*	*	*	*	*	*	*	*	*	*	*	*	*	*	*	*	*	*
!	!	!	!	!	!	!	!	!	!LO:DY:a	!LO:DY:a	!	!	!	!LO:DY:a	!LO:DY:a	!	!	!	!LO:DY:a	!LO:DY:a	!	!	!	!LO:DY:a	!LO:DY:a
(4AAA/ 4AA	(8A\L 8c#	.	(16e/LL	(16cc#\LL 16ee	.	8.A\	.	[Dru-	p	p	8.c#\	.	[Dru-	p	p	8.a/	Dru-	Dru-	p	p	8.ee\	Dru-	Dru-	p	p
.	.	.	16f#/J	16ff#\J	.	.	.	.	.	.	.	.	.	.	.	.	.	.	.	.	.	.	.	.	.
.	8E\J)	.	8e/J)	8ee\J)	.	.	.	.	.	.	.	.	.	.	.	.	.	.	.	.	.	.	.	.	.
.	.	.	.	.	.	16A\	.	-ga	.	.	16c#\	.	-ga	.	.	16e/	-ga	-ga	.	.	16cc#\	-ga	-ga	.	.
4EE/)	(8G#\L 8d	.	(8g#/L	(8dd\L 8gg#	.	8G#\	.	ocz-	.	.	8d\	.	ocz-	.	.	8e/	ocz-	ocz-	.	.	16b/	ocz-	ocz-	.	.
.	.	.	.	.	.	.	.	.	.	.	.	.	.	.	.	.	.	.	.	.	16g#/	-ki	-ki	.	.
.	8E\J) 8e	.	16a/L	16aa\L	.	8E\	.	-ki	.	.	8B\	.	-ki	.	.	8d/	-ki	-ki	.	.	16f#/	spu-	spu-	.	.
.	.	.	16b/JJ)	16bb\JJ)	.	.	.	.	.	.	.	.	.	.	.	.	.	.	.	.	16g#/	-szcza	-szcza	.	.
=10	=10	=10	=10	=10	=10	=10	=10	=10	=10	=10	=10	=10	=10	=10	=10	=10	=10	=10	=10	=10	=10	=10	=10	=10	=10
(4AA/	(8A\L 8c#	.	(8a\L 8cc#	(8aa\L 8ccc#	.	8A\	.	spu-	.	.	8A/	.	spu-	.	.	8c#/	spu-	spu-	.	.	(8e/L	skro-	skro-	.	.
.	8E\J) 8e	.	8ff#\J)	8fff#\J)	.	8A\	.	-szcza	.	.	8c#\	.	-szcza	.	.	8e/	-szcza	-szcza	.	.	8cc#/J)	.	.	.	.
4EE/)	(8G#\L 8d	.	(8.g#^\L 8.ee	(8.gg#^\L 8.eee	.	4E\	.	skrom-	.	.	4d\	.	skrom-	.	.	(8.g#/L	skrom-	skrom-	.	.	8b\	-mnie:	-mnie:	.	.
.	8E\J) 8e	.	.	.	.	.	.	.	.	.	.	.	.	.	.	.	.	.	.	.	8r	.	.	.	.
.	.	.	16dd\Jk)	16ddd\Jk)	.	.	.	.	.	.	.	.	.	.	.	16f#/Jk)	.	.	.	.	.	.	.	.	.
=11	=11	=11	=11	=11	=11	=11	=11	=11	=11	=11	=11	=11	=11	=11	=11	=11	=11	=11	=11	=11	=11	=11	=11	=11	=11
(4AA/	(8A\ 8c#	.	(16a\LL 16cc#	(16aa\LL 16ccc#	.	8A\	.	-nie,]	.	.	8c#\	.	-nie,]	.	.	8e/	-nie,	-nie,	.	.	8r	.	.	.	.
.	.	.	16ee\J)	16eee\J)	.	.	.	.	.	.	.	.	.	.	.	.	.	.	.	.	.	.	.	.	.
.	4E\) 4e	.	8ee\J	8eee\J	.	8r	.	.	.	.	8r	.	.	.	.	8r	.	.	.	.	16cc#\	"Nie-	"Nie-	.	.
.	.	.	.	.	.	.	.	.	.	.	.	.	.	.	.	.	.	.	.	.	16cc#\	-za-	-za-	.	.
*	*	*	*	*8va	*	*	*	*	*	*	*	*	*	*	*	*	*	*	*	*	*	*	*	*	*
4EE/)	.	.	(8a\L 8cc# 8ff#	(8aa\L 8ccc# 8fff#	.	4r	.	.	.	.	4r	.	.	.	.	4r	.	.	.	.	8a/	-po-	-po-	.	.
.	8E\ 8e	.	8cc#\J) 8aa	8ccc#\J) 8aaa	.	.	.	.	.	.	.	.	.	.	.	.	.	.	.	.	8ff#\	-mnij,	-mnij,	.	.
!!LO:LB:g=original
=12	=12	=12	=12	=12	=12	=12	=12	=12	=12	=12	=12	=12	=12	=12	=12	=12	=12	=12	=12	=12	=12	=12	=12	=12	=12
*	*	*	*^	*^	*	*	*	*	*	*	*	*	*	*	*	*	*	*	*	*	*	*	*	*	*
(4BB/	(8G#\ 8d	.	(8gg#/	4.g#\ 4.dd	(8ggg#/	4.ddd\	.	2r	.	.	.	.	2r	.	.	.	.	2r	.	.	.	.	8ee\	chłop-	chłop-	.	.
.	4E\) 4e	.	4ee/)	.	4eee/)	.	.	.	.	.	.	.	.	.	.	.	.	.	.	.	.	.	(16b\LL	-cze,	-cze,	.	.
.	.	.	.	.	.	.	.	.	.	.	.	.	.	.	.	.	.	.	.	.	.	.	16cc#\JJ)	.	.	.	.
4EE/)	.	.	.	.	.	.	.	.	.	.	.	.	.	.	.	.	.	.	.	.	.	.	8b\	o	o	.	.
.	8E\ 8e	.	8g#/ 8dd	8ryy	8ee/ 8gg# 8ddd	8ryy	.	.	.	.	.	.	.	.	.	.	.	.	.	.	.	.	8g#/	mnie!"	mnie!"	.	.
*	*	*	*v	*v	*	*	*	*	*	*	*	*	*	*	*	*	*	*	*	*	*	*	*	*	*	*	*
*	*	*	*	*v	*v	*	*	*	*	*	*	*	*	*	*	*	*	*	*	*	*	*	*	*	*	*
=13	=13	=13	=13	=13	=13	=13	=13	=13	=13	=13	=13	=13	=13	=13	=13	=13	=13	=13	=13	=13	=13	=13	=13	=13	=13
!	!	!	!	!	!	!	!	!	!	!	!	!	!	!	!	!	!	!	!LO:DY:a	!LO:DY:a	!	!	!	!	!
(4AA/	(8A\L 8c#	.	(16a\LL 16cc#	(16ee\LL 16aa 16ccc#	.	8.A\	.	[Pol-	p	p	8.c#\	.	[Pol-	p	p	8.e/	Pol-	Pol-	p	p	8.a/	Pol-	Pol-	.	.
.	.	.	16ee\J)	16eee\J)	.	.	.	.	.	.	.	.	.	.	.	.	.	.	.	.	.	.	.	.	.
.	8E\J)	.	8ee\J	8eee\J	.	.	.	.	.	.	.	.	.	.	.	.	.	.	.	.	.	.	.	.	.
.	.	.	.	.	.	16A\	.	-ny	.	.	16c#\	.	-ny	.	.	16e/	-ny	-ny	.	.	16a/	-ny	-ny	.	.
*	*	*	*	*X8va	*	*	*	*	*	*	*	*	*	*	*	*	*	*	*	*	*	*	*	*	*
4EE/)	4B^^\ 4d	.	(8.f#^/L 8.a	(8.cc#^\L 8.ff# 8.aa	.	8.E\	.	kwiat	.	.	8.B\	.	kwiat	.	.	8.d/	kwiat	kwiat	.	.	8.f#/	kwiat	kwiat	.	.
.	.	.	16g#/Jk) 16b	16gg#\Jk) 16bb	.	16E\	.	zer-	.	.	16B\	.	zer-	.	.	16d/	zer-	zer-	.	.	16g#/	zer-	zer-	.	.
=14	=14	=14	=14	=14	=14	=14	=14	=14	=14	=14	=14	=14	=14	=14	=14	=14	=14	=14	=14	=14	=14	=14	=14	=14	=14
4AA/	(8A\L 8c#	<	(16a\LL 16cc#	(16aa\LL 16ccc#	<	8A\	.	-wa-	.	.	8A/	.	-wa-	.	.	(16c#/LL	-wa-	-wa-	.	.	(16a/LL	-wa-	-wa-	.	.
.	.	.	16ff#\J	16fff#\J	.	.	.	.	.	.	.	.	.	.	.	16d/JJ)	.	.	.	.	16b/JJ)	.	.	.	.
!	!	!	!	!	!	!	!	!	!	!	!	!	!	!	!	!	!	!	!	!	!	!	!	!LO:DY:a	!LO:DY:a
.	8E\J) 8e	.	8ee\J)	8eee\J)	.	8A\	.	-ła	.	.	8A/	.	-ła	.	.	8e/	-ła	-ła	.	.	8cc#\	-ła	-ła	<	.
!	!	!	!	!	!LO:MO:null:mod=.	!	!	!	!	!	!	!	!	!	!	!	!	!	!	!	!	!	!	!	!
(8FF#/L	(8F#\L 8B	.	(8a\L 8dd#X	(8aa\L 8ddd#X	[	8F#\	.	i	<	<	8B\	.	i	<	<	8a/	.	[i	<	<	8dd#X\	i	i	.	<
!	!	!	!	!	!LO:MO:null:mod=[	!	!	!	!	!	!	!	!	!	!	!	!	!	!	!	!	!	!	!	!
8BBB/J) 8BB	8A\J) 8d#X	[	16cc#\L	16ccc#\L	.	8F#\	.	mi-	[[	[[	8B\	.	mi-	[[	[[	8a/	.	mi-	[[	[[	(16ee\LL	mi-	mi-	.	.
.	.	.	16b\JJ)	16bb\JJ)	.	.	.	.	.	.	.	.	.	.	.	.	.	.	.	.	16ff#\JJ)	.	.	[[	[[
=15	=15	=15	=15	=15	=15	=15	=15	=15	=15	=15	=15	=15	=15	=15	=15	=15	=15	=15	=15	=15	=15	=15	=15	=15	=15
(4EE/ 4E	(8G#\ 8e	.	(16g#\LL 16b	(16gg#\LL 16bb	.	8E\	.	-łe-	.	.	8B\	.	-łe-	.	.	8g#/	.	-łe-	.	.	8gg#\	-łe-	-łe-	.	.
.	.	.	16cc#\	16ccc#\	.	.	.	.	.	.	.	.	.	.	.	.	.	.	.	.	.	.	.	.	.
!	!	!	!	!	!	!	!	!	!	!	!	!	!	!	!	!	!	!	!	!	!	!	!	!LO:DY:a	!LO:DY:a
.	4B\)	>	16b\	16bb\	>	8E\	.	-mu	>	>	8B\	.	-mu	>	>	8g#/	.	-mu	>	>	8b\	-mu	-mu	>	>
.	.	.	16ee\JJ)	16eee\JJ)	.	.	.	.	.	.	.	.	.	.	.	.	.	.	.	.	.	.	.	.	.
*	*	*	*	*8va	*	*	*	*	*	*	*	*	*	*	*	*	*	*	*	*	*	*	*	*	*
4BBB/) 4BB	.	.	(8a\L 8ff#	(8aa\L 8fff#	.	4BB/	.	da-	]]	.	4B\	.	da-	]]	.	4a/	.	da-	]]	.	(8cc#\L	da-	da-	.	.
.	8B\	]]	8cc#\J) 8aa	8ccc#\J) 8aaa	]]	.	.	.	.	]]	.	.	.	.	]]	.	.	.	.	]]	8dd#X\J)	.	.	]]	]]
=16	=16	=16	=16	=16	=16	=16	=16	=16	=16	=16	=16	=16	=16	=16	=16	=16	=16	=16	=16	=16	=16	=16	=16	=16	=16
4EE/ 4BB	4E\ 4G# 4B	.	(8b\ 8gg#	(8bb\ 8ggg#	.	4E\	.	-ła.]	.	.	4B\	.	-ła.]	.	.	4g#/	.	-ła.]	.	.	4ee\	-ła.	-ła.	.	.
.	.	.	4g#\) 4ee	4gg#\) 4eee	.	.	.	.	.	.	.	.	.	.	.	.	.	.	.	.	.	.	.	.	.
4r	4E\ 4e	.	.	.	.	4r	.	.	.	.	4r	.	.	.	.	4r	.	.	.	.	4r	.	.	.	.
.	.	.	8ee\	8eee\	.	.	.	.	.	.	.	.	.	.	.	.	.	.	.	.	.	.	.	.	.
!!LO:PB:g=original
=17!|:	=17!|:	=17!|:	=17!|:	=17!|:	=17!|:	=17!|:	=17!|:	=17!|:	=17!|:	=17!|:	=17!|:	=17!|:	=17!|:	=17!|:	=17!|:	=17!|:	=17!|:	=17!|:	=17!|:	=17!|:	=17!|:	=17!|:	=17!|:	=17!|:	=17!|:
*>B	*>B	*	*>B	*>B	*	*>B	*	*	*	*	*>B	*	*	*	*	*>B	*	*	*	*	*>B	*	*	*	*
!	!	!	!	!	!	!	!	!	!	!LO:DY:ed=brack	!	!	!	!	!	!	!	!	!	!	!	!	!	!LO:DY:a	!LO:DY:a
(4BB/	8G#\ 8d	mf	(16g#\LL 16ddn	(16gg#\LL 16dddn	mf	4.E\	.	[Gdy	.	mf	4.e\	.	[Gdy	mf	mf	4.g#/	.	[Gdy	mf	mf	4.ddn\	Gdy	Gdy	mf	mf
.	.	.	16ee\J	16eee\J	.	.	.	.	.	.	.	.	.	.	.	.	.	.	.	.	.	.	.	.	.
.	4E\ 4e	.	8dd\J)	8ddd\J)	.	.	.	.	.	.	.	.	.	.	.	.	.	.	.	.	.	.	.	.	.
4EE/)	.	.	(8g#/L 8b	(8gg#/L 8bb	.	.	.	.	.	.	.	.	.	.	.	.	.	.	.	.	.	.	.	.	.
.	8E\ 8e	.	16a/L 16cc#	16aa/L 16ccc#	.	8E\	.	go	.	.	8e\	.	go	.	.	(16a/LL	.	go	.	.	(16cc#\LL	go	go	.	.
.	.	.	16b/JJ) 16dd	16bb/JJ) 16ddd	.	.	.	.	.	.	.	.	.	.	.	16b/JJ)	.	.	.	.	16dd\JJ)	.	.	.	.
=18	=18	=18	=18	=18	=18	=18	=18	=18	=18	=18	=18	=18	=18	=18	=18	=18	=18	=18	=18	=18	=18	=18	=18	=18	=18
(4C#/	8A\	.	(8a\L 8ff#	(8aa\L 8fff#	.	4C#/	.	przy-	.	.	4e\	.	przy-	.	.	(8a/L	.	przy-	.	.	(8ff#\L	przy-	przy-	.	.
.	4E\ 4e	.	8cc#\) 8ee	8ccc#\) 8eee	.	.	.	.	.	.	.	.	.	.	.	8cc#/J)	.	.	.	.	8ee\J)	.	.	.	.
4EE/)	.	.	(8cc#\ 8aa	(8ccc#\ 8aaa	.	4E\	.	-piął	.	.	4e\	.	-piął	.	.	4a/	.	-piął	.	.	4cc#\	-piął	-piął	.	.
.	[8E\ [8e	.	16gg#\L	16ggg#\L	.	.	.	.	.	.	.	.	.	.	.	.	.	.	.	.	.	.	.	.	.
.	.	.	16ee\JJ)	16eee\JJ)	.	.	.	.	.	.	.	.	.	.	.	.	.	.	.	.	.	.	.	.	.
=19	=19	=19	=19	=19	=19	=19	=19	=19	=19	=19	=19	=19	=19	=19	=19	=19	=19	=19	=19	=19	=19	=19	=19	=19	=19
(4BB/	8E\] 8e]	.	(16ee\LL 16gg#	(16eee\LL 16ggg#	.	4r	.	.	.	.	4r	.	.	.	.	4r	.	.	.	.	4r	.	.	.	.
.	.	.	16dd\J) 16ff#	16ddd\J) 16fff#	.	.	.	.	.	.	.	.	.	.	.	.	.	.	.	.	.	.	.	.	.
.	4E\ 4e	.	8dd\J 8ff#	8ddd\J 8fff#	.	.	.	.	.	.	.	.	.	.	.	.	.	.	.	.	.	.	.	.	.
4EE/)	.	.	(8b\L 8dd	(8bb\L 8ddd	.	8E\	.	na	.	.	8d\	.	na	.	.	8g#/	.	na	.	.	8b\	na	na	.	.
.	8G#\ 8e	.	8dd\J) 8ff#	8ddd\J) 8fff#	.	8E\	.	mun-	.	.	8d\	.	mun-	.	.	8e/	.	mun-	.	.	8g#/	mun-	mun-	.	.
=20	=20	=20	=20	=20	=20	=20	=20	=20	=20	=20	=20	=20	=20	=20	=20	=20	=20	=20	=20	=20	=20	=20	=20	=20	=20
4AA/	8r	.	(8cc#\ 8ee	(8ccc#\ 8eee	.	4A\	.	-du-	.	.	4c#\	.	-du-	.	.	4e/	.	-du-	.	.	(8a/L	-du-	-du-	.	.
.	4E\ 4c# 4e	.	4a/)	4aa/)	.	.	.	.	.	.	.	.	.	.	.	.	.	.	.	.	8cc#/J)	.	.	.	.
4r	.	.	.	.	.	8A\	.	-rze,	.	.	8c#\	.	-rze,	.	.	8e/	.	-rze,	.	.	8e/	-rze,	-rze,	.	.
.	8r	.	8b\	8bb\	.	8r	.	.	.	.	8r	.	.	.	.	8r	.	.	.	.	8r	.	.	.	.
=21	=21	=21	=21	=21	=21	=21	=21	=21	=21	=21	=21	=21	=21	=21	=21	=21	=21	=21	=21	=21	=21	=21	=21	=21	=21
(4GGn/	8r	.	(16ccn\LL	(16cccn\LL	.	4r	.	.	.	.	4r	.	.	.	.	4r	.	.	.	.	4r	.	.	.	.
.	.	.	16dd\J	16ddd\J	.	.	.	.	.	.	.	.	.	.	.	.	.	.	.	.	.	.	.	.	.
!	!LO:TX:t=P:cresc:problem	!	!	!	!	!	!	!	!	!	!	!	!	!	!	!	!	!	!	!	!	!	!	!	!
.	8E\ 8Gn 8cn 8e	<	8cc\J	8ccc\J	.	.	.	.	.	.	.	.	.	.	.	.	.	.	.	.	.	.	.	.	.
4GGGn/)	8r	.	16b\LL	16bb\LL	.	8Gn\	.	Szwa-	.	.	8d\	.	Szwa-	.	.	8fn/	.	Szwa-	.	.	8b\	Szwa-	Szwa-	.	.
.	.	.	16a\	16aa\	.	.	.	.	.	.	.	.	.	.	.	.	.	.	.	.	.	.	.	.	.
!	!	!	!	!	!	!LO:TX:t=P:cresc:problem	!	!	!	!	!LO:TX:t=P:cresc:problem	!	!	!	!	!LO:TX:t=P:cresc:problem	!	!	!	!	!LO:TX:t=P:cresc:problem	!	!	!LO:DY:a	!LO:DY:a
.	8Fn\ 8G 8B 8d	[[	16gn\	16ggn\	.	8G\	.	-dron	<	<	8d\	.	-dron	<	<	8f/	.	-dron	<	<	8b\	-dron	-dron	<	<
.	.	.	16ffn\JJ)	16fffn\JJ)	.	.	.	.	.	.	.	.	.	.	.	.	.	.	.	.	.	.	.	.	.
=22	=22	=22	=22	=22	=22	=22	=22	=22	=22	=22	=22	=22	=22	=22	=22	=22	=22	=22	=22	=22	=22	=22	=22	=22	=22
(4CCn/	8r	.	(16ee-X\LL	(16eee-X\LL	.	4Cn/	.	ca-	.	.	4cn\	.	ca-	.	.	4e-X/	.	ca-	.	.	4ccn\	ca-	ca-	.	.
.	.	.	16ffn\J	16fffn\J	.	.	.	.	.	.	.	.	.	.	.	.	.	.	.	.	.	.	.	.	.
.	8E-X\ 8Gn 8cn 8e-X	.	8ee-\J	8eee-\J	.	.	.	.	.	.	.	.	.	.	.	.	.	.	.	.	.	.	.	.	.
4BBB-X/)	8r	.	16dd\LL	16ddd\LL	.	4BB-X/	.	-ły	[	[	4fn\	.	-ły	[	[	4a-X/	.	-ły	[	[	4dd\	-ły	-ły	[	[
.	.	.	16ccn\	16cccn\	.	.	.	.	.	.	.	.	.	.	.	.	.	.	.	.	.	.	.	.	.
.	8Fn\ 8A-X 8d 8fn	.	16b-X\	16bb-X\	.	.	.	.	.	.	.	.	.	.	.	.	.	.	.	.	.	.	.	.	.
.	.	.	16aa-X\JJ)	16aaa-X\JJ)	.	.	.	.	.	.	.	.	.	.	.	.	.	.	.	.	.	.	.	.	.
!!LO:LB:g=original
=23	=23	=23	=23	=23	=23	=23	=23	=23	=23	=23	=23	=23	=23	=23	=23	=23	=23	=23	=23	=23	=23	=23	=23	=23	=23
4EE-X/	8r	f	(16ggn\LL	(16gggn\LL	f <	8E-X\	.	huk-	f	f	8e-X\	huk-	huk-	f	f	8gn/	.	huk-	f	f	8dd#X\	huk-	huk-	f	f
.	.	.	16aa-X\J	16aaa-X\J	.	.	.	.	.	.	.	.	.	.	.	.	.	.	.	.	.	.	.	.	.
.	8Gn\ 8B-X 8e-X 8gn	.	8gg\J)	8ggg\J)	.	8E-\	.	-nął	.	.	8B-X\	-nął	-nął	.	.	8g/	.	-nął	.	.	8dd#\	-nął	-nął	.	.
4DD#X^/ 4D#X	4An^\ 4Bn 4f#X	.	(16ff#X^\LL	(16fff#X^\LL	[	(4E-\	.	w chó-	.	.	[4Bn\	w chó-	w chó-	.	.	(4an/	.	w chó-	.	.	(4ff#X\	w chó-	w chó-	.	.
.	.	.	16ccc#X\	16cccc#X\	.	.	.	.	.	.	.	.	.	.	.	.	.	.	.	.	.	.	.	.	.
.	.	.	16bbn\	16bbbn\	.	.	.	.	.	.	.	.	.	.	.	.	.	.	.	.	.	.	.	.	.
.	.	.	16aan\JJ	16aaan\JJ	.	.	.	.	.	.	.	.	.	.	.	.	.	.	.	.	.	.	.	.	.
=24	=24	=24	=24	=24	=24	=24	=24	=24	=24	=24	=24	=24	=24	=24	=24	=24	=24	=24	=24	=24	=24	=24	=24	=24	=24
*	*^	*	*	*	*	*	*	*	*	*	*	*	*	*	*	*	*	*	*	*	*	*	*	*	*
2EEn/ 2En	8r	4ryy	.	16gg#X\LL	16ggg#X\LL	.	4En\)	.	.	>	>	4B\]	.	.	>	>	4g#X/	.	.	>	>	8ee\L	.	.	>	>
!	!	!	!	!LO:TX:t=P:dimin:problem	!LO:TX:t=P:dimin:problem	!	!	!	!	!	!	!	!	!	!	!	!	!	!	!	!	!	!	!	!	!
.	.	.	.	16bb\	16bbb\	>	.	.	.	.	.	.	.	.	.	.	.	.	.	.	.	.	.	.	.	.
!	!LO:TX:t=P:dimin:problem	!	!	!	!	!	!	!	!	!	!	!	!	!	!	!	!	!	!	!	!	!	!	!	!	!
.	(8G#\L 8dn 8en	.	>	16gg#\	16ggg#\	.	.	.	.	.	.	.	.	.	.	.	.	.	.	.	.	8dd\	.	.	.	.
.	.	.	.	16ff#\JJ	16fff#\JJ	.	.	.	.	.	.	.	.	.	.	.	.	.	.	.	.	.	.	.	.	.
*	*v	*v	*	*	*	*	*	*	*	*	*	*	*	*	*	*	*	*	*	*	*	*	*	*	*	*
*	*	*	*	*X8va	*	*	*	*	*	*	*	*	*	*	*	*	*	*	*	*	*	*	*	*	*
*	*^	*	*	*	*	*	*	*	*	*	*	*	*	*	*	*	*	*	*	*	*	*	*	*	*
.	8A\J) 8d 8f#	8ryy	.	16dd/LL	16ddd\LL	.	4E\	.	-rze:	]]	.	(8A/L	-rze:	-rze:	.	.	8f#/L	.	.	.	.	8b\	.	.	.	.
.	.	.	.	16b/	16bb\	.	.	.	.	.	.	.	.	.	.	.	.	.	.	.	.	.	.	.	.	.
.	8d/	(16B\LL	.	16g#/	16gg#\	.	.	.	.	.	]]	8B/J)	.	.	]]	]]	8g#/J)	.	.	]]	]]	8dd\J)	.	.	]]	]]
.	.	16A\JJ)	.	16f#/JJ)	16ff#\JJ)	]]	.	.	.	.	.	.	.	.	.	.	.	.	.	.	.	.	.	.	.	.
*	*v	*v	*	*	*	*	*	*	*	*	*	*	*	*	*	*	*	*	*	*	*	*	*	*	*	*
=25	=25	=25	=25	=25	=25	=25	=25	=25	=25	=25	=25	=25	=25	=25	=25	=25	=25	=25	=25	=25	=25	=25	=25	=25	=25
*	*	*	*	*	*	*^	*	*	*	*	*^	*	*	*	*	*	*	*	*	*	*	*	*	*	*
!	!	!	!	!	!	!	!	!	!	!LO:DY:a	!LO:DY:a	!	!	!	!	!LO:DY:a	!LO:DY:a	!	!	!	!	!	!	!	!	!	!
(4AA/	(8A\L 8c#	] p	(16e/LL	(16cc#\LL 16ee	p	8.E/	8.AA\	.	"Oj-	p	p	8.c#/	8.A\	"Oj-	"Oj-	p	p	8a/	.	-rze.]	.	.	8cc#\	-rze.	-rze.	.	.
.	.	.	16f#/J	16ff#\J	.	.	.	.	.	.	.	.	.	.	.	.	.	.	.	.	.	.	.	.	.	.	.
.	8E\	.	8e/J	8ee\J	.	.	.	.	.	.	.	.	.	.	.	.	.	8r	.	.	.	.	8r	.	.	.	.
.	.	.	.	.	.	16E/	16AA\	.	-że,	.	.	16e/	16c#\	-że,	-że,	.	.	.	.	.	.	.	.	.	.	.	.
4EE/)	8G#\ 8d	.	8g#/L	8dd\L 8gg#	.	8E/	8E\	.	oj-	.	.	8d/	8B\	oj-	oj-	.	.	4r	.	.	.	.	4r	.	.	.	.
.	8E\J) 8e	.	16a/L	16aa\L	.	8E/	8E\	.	-że	.	.	8B/	8G#\	-że	-że	.	.	.	.	.	.	.	.	.	.	.	.
.	.	.	16b/JJ)	16bb\JJ)	.	.	.	.	.	.	.	.	.	.	.	.	.	.	.	.	.	.	.	.	.	.	.
*	*	*	*	*	*	*v	*v	*	*	*	*	*	*	*	*	*	*	*	*	*	*	*	*	*	*	*	*
*	*	*	*	*	*	*	*	*	*	*	*v	*v	*	*	*	*	*	*	*	*	*	*	*	*	*	*
=26	=26	=26	=26	=26	=26	=26	=26	=26	=26	=26	=26	=26	=26	=26	=26	=26	=26	=26	=26	=26	=26	=26	=26	=26	=26
*	*	*	*	*8va	*	*	*	*	*	*	*	*	*	*	*	*	*	*	*	*	*	*	*	*	*
*	*	*	*	*	*	*^	*	*	*	*	*^	*	*	*	*	*	*	*	*	*	*	*	*	*	*
(4AA/	(8A\L 8c#	.	(8a\L 8cc#	(8aa\L 8ccc#	.	4E/	(8AA\L	.	i-	.	.	4c#/	4A\	i-	i-	.	.	2r	.	.	.	.	2r	.	.	.	.
.	8E\ 8e	.	8ff#\J)	8fff#\J)	.	.	8C#\J)	.	.	.	.	.	.	.	.	.	.	.	.	.	.	.	.	.	.	.	.
4EE/)	8G#\ 8d	.	(8.g#^\L 8.ee	(8.gg#^\L 8.eee	.	4E/	4E\	.	-no,	.	.	4B/	4G#\	-no,	-no,	.	.	.	.	.	.	.	.	.	.	.	.
.	8E\J) 8e	.	.	.	.	.	.	.	.	.	.	.	.	.	.	.	.	.	.	.	.	.	.	.	.	.	.
.	.	.	16dd\Jk)	16ddd\Jk)	.	.	.	.	.	.	.	.	.	.	.	.	.	.	.	.	.	.	.	.	.	.	.
=27	=27	=27	=27	=27	=27	=27	=27	=27	=27	=27	=27	=27	=27	=27	=27	=27	=27	=27	=27	=27	=27	=27	=27	=27	=27	=27	=27
!	!	!	!	!	!	!LO:N:vis=16	!	!	!	!	!	!	!	!	!	!	!	!	!	!	!	!	!	!	!	!	!
8AA/L	8A\L 8c#	.	(16a\LL 16cc#	(16aa\LL 16ccc#	<	8r	8ryy	.	.	.	.	8r	8ryy	.	.	.	.	2r	.	.	.	.	2r	.	.	.	.
.	.	.	16ee\J)	16eee\J)	.	.	.	.	.	.	.	.	.	.	.	.	.	.	.	.	.	.	.	.	.	.	.
(8CC#/ 8C#	(8A\ 8e	<	8ee\J	8eee\J	.	16E/	16C#\	.	Nie	.	.	16c#/	16A\	Nie	Nie	.	.	.	.	.	.	.	.	.	.	.	.
.	.	.	.	.	.	16E/	16C#\	.	smuć	.	.	16c#/	16A\	smuć	smuć	.	.	.	.	.	.	.	.	.	.	.	.
8DD/ 8D	8A\ 8f#	.	(8dd\L 8ff#	(8ddd\L 8fff#	.	8F#/	8D\	.	się	.	.	8A/	8A\	się	się	.	.	.	.	.	.	.	.	.	.	.	.
8BBB/J) 8BB	8A\J) 8d 8f#	[	8ff#\J) 8ddd	8fff#\J) 8dddd	[	8A/	8BB\	.	dziew-	.	.	8f#/	8d\	dziew-	dziew-	.	.	.	.	.	.	.	.	.	.	.	.
=28	=28	=28	=28	=28	=28	=28	=28	=28	=28	=28	=28	=28	=28	=28	=28	=28	=28	=28	=28	=28	=28	=28	=28	=28	=28	=28	=28
(4EE/ 4E	8r	>	8ee\ 8gg# 8ccc#	8eee\ 8ggg# 8cccc#	>	4G#/	4E\	.	-czy-	.	.	4e/	4B\	-czy-	-czy-	.	.	2r	.	.	.	.	2r	.	.	.	.
.	4G#\ 4B 4e	.	4dd\ 4gg# 4bb	4ddd\ 4ggg# 4bbb	.	.	.	.	.	.	.	.	.	.	.	.	.	.	.	.	.	.	.	.	.	.	.
4BBB/) 4BB	.	.	.	.	.	4G#/	4E\	.	-no,	.	.	4G#/	4G#\	-no,	-no,	.	.	.	.	.	.	.	.	.	.	.	.
.	8G#\ 8B 8e	]]	8dd\ 8gg#	8ddd\ 8ggg#	]	.	.	.	.	.	.	.	.	.	.	.	.	.	.	.	.	.	.	.	.	.	.
!!LO:PB:g=original
=29	=29	=29	=29	=29	=29	=29	=29	=29	=29	=29	=29	=29	=29	=29	=29	=29	=29	=29	=29	=29	=29	=29	=29	=29	=29	=29	=29
(4DD/ 4D	8r	.	(16dd\LL 16ff#	(16ddd\LL 16fff#	.	8.F#/	8.D\	.	Go-	.	.	8.A/	8.A\	Go-	Go-	.	.	2r	.	.	.	.	2r	.	.	.	.
.	.	.	16aa\J)	16aaa\J)	.	.	.	.	.	.	.	.	.	.	.	.	.	.	.	.	.	.	.	.	.	.	.
.	4A\ 4d 4f#	.	8aa\J	8aaa\J	.	.	.	.	.	.	.	.	.	.	.	.	.	.	.	.	.	.	.	.	.	.	.
!	!	!	!	!	!	!LO:N:vis=8	!	!	!	!	!	!	!	!	!	!	!	!	!	!	!	!	!	!	!	!	!
.	.	.	.	.	.	16F#/	16D\	.	-tuj	.	.	16A/	16A\	-tuj	-tuj	.	.	.	.	.	.	.	.	.	.	.	.
4BBB/) 4BB	.	.	(8.a^\L 8.dd	(8.aa^\L 8.ddd	.	8F#/	8BB\	.	kwia-	.	.	8d/	8A\	kwia-	kwia-	.	.	.	.	.	.	.	.	.	.	.	.
.	8A\ 8d 8f#	.	.	.	.	8A/	8BB\	.	-tów	.	.	8f#/	8d\	-tów	-tów	.	.	.	.	.	.	.	.	.	.	.	.
.	.	.	16ee\Jk)	16eee\Jk)	.	.	.	.	.	.	.	.	.	.	.	.	.	.	.	.	.	.	.	.	.	.	.
=30	=30	=30	=30	=30	=30	=30	=30	=30	=30	=30	=30	=30	=30	=30	=30	=30	=30	=30	=30	=30	=30	=30	=30	=30	=30	=30	=30
(4GGG#/ 4GG#	8r	.	(16dd\LL 16ff#	(16ddd\LL 16fff#	.	4B/	4GG#\	.	wie-	.	.	4f#/	4d\	wie-	wie-	.	.	2r	.	.	.	.	2r	.	.	.	.
.	.	.	16bb\J	16bbb\J	.	.	.	.	.	.	.	.	.	.	.	.	.	.	.	.	.	.	.	.	.	.	.
*	*clefG2	*	*	*	*	*	*	*	*	*	*	*	*	*	*	*	*	*	*	*	*	*	*	*	*	*	*
.	4B/ 4d 4f#	.	8aa\J	8aaa\J	.	.	.	.	.	.	.	.	.	.	.	.	.	.	.	.	.	.	.	.	.	.	.
4EEE/) 4EE	.	.	8dd\L 8gg#	8ddd\L 8ggg#	.	8G#/	8E\	.	-le	.	.	8e/	8B\	-le	-le	.	.	.	.	.	.	.	.	.	.	.	.
!	!	!	!	!LO:MO:mod=!LO&colon;TX&colon;t=molto rallent.	!	!	!	!	!	!	!	!	!	!	!	!	!	!	!	!	!	!	!	!	!	!	!
!	!LO:TX:a:t=molto rallent:mod=molto rallent.	!	!	!LO:TX:b:t=molto rallent	!	!LO:TX:a:t=molto rallent.	!	!	!	!	!	!LO:TX:a:t=molto rallent:mod=molto rallent.	!	!	!	!	!	!	!	!	!	!	!	!	!	!	!
.	8B/ 8d 8g#	.	16ff#\L	16fff#\L	.	8G#/	8E\	.	Na	.	.	8d/	8B\	Na	Na	.	.	.	.	.	.	.	.	.	.	.	.
.	.	.	16ee\JJ)	16eee\JJ)	.	.	.	.	.	.	.	.	.	.	.	.	.	.	.	.	.	.	.	.	.	.	.
=31	=31	=31	=31	=31	=31	=31	=31	=31	=31	=31	=31	=31	=31	=31	=31	=31	=31	=31	=31	=31	=31	=31	=31	=31	=31	=31	=31
!	!	!	!	!	!LO:MO:null:mod=>	!	!	!	!	!	!	!	!	!	!	!	!	!	!	!	!	!	!	!	!	!	!
(8AAA/L 8AA	8A/L 8c# 8a	>	(16cc#\LL 16ee	(16ccc#\LL 16eee	.	(8A/L	(8AA\L	.	rych-	.	.	4c#/	4A\	rych-	rych-	.	.	2r	.	.	.	.	2r	.	.	.	.
.	.	.	16ff#\	16fff#\	.	.	.	.	.	.	.	.	.	.	.	.	.	.	.	.	.	.	.	.	.	.	.
8CC#/J) 8C#	8A/J 8e	.	16ee\	16eee\	.	8E/J)	8C#\J)	.	.	.	.	.	.	.	.	.	.	.	.	.	.	.	.	.	.	.	.
.	.	.	16aa\JJ)	16aaa\JJ)	.	.	.	.	.	.	.	.	.	.	.	.	.	.	.	.	.	.	.	.	.	.	.
!	!	!LO:MO:null:mod=.	!	!	!LO:MO:null:mod=.	!	!	!	!	!	!	!	!	!	!	!	!	!	!	!	!	!	!	!	!	!	!
4EE/ 4E	8r	]	8dd'\L 8bb	8ddd'\L 8bbb	>	8E/	8E\	.	-łe	.	.	8d/	8G#\	-łe	-łe	.	.	.	.	.	.	.	.	.	.	.	.
!	!	!LO:MO:null:mod=]]	!	!	!	!	!	!	!	!	!	!	!	!	!	!	!	!	!	!	!	!	!	!	!	!	!
.	8G#/ 8d 8e 8g#	.	8ff#'\J 8ddd	8fff#'\J 8dddd	]]	8E/	8E\	.	we-	.	.	8B/	8G#\	we-	we-	.	.	.	.	.	.	.	.	.	.	.	.
=32	=32	=32	=32	=32	=32	=32	=32	=32	=32	=32	=32	=32	=32	=32	=32	=32	=32	=32	=32	=32	=32	=32	=32	=32	=32	=32	=32
!	!	!	!	!	!	!	!	!	!	!LO:DY:a	!LO:DY:a	!	!	!	!	!LO:DY:a	!LO:DY:a	!	!	!	!	!	!	!	!	!	!
4AAA/ 4AA	8r	pp	8ee'\ 8ccc#	8eee'\ 8cccc#	pp	8E/	8AA\	.	-se-	pp	pp	(16c#/LL	8A\	-se-	-se-	pp	pp	2r	.	.	.	.	2r	.	.	.	.
.	.	.	.	.	.	.	.	.	.	.	.	16e/JJ)	.	.	.	.	.	.	.	.	.	.	.	.	.	.	.
.	4A/ 4c# 4e 4a	.	4cc#^^\ 4ee	4aa^^\ 4ccc# 4aaa	.	4E/	4AA\	.	-le!"]	.	.	4a/	4c#\	-le!"	-le!"	.	.	.	.	.	.	.	.	.	.	.	.
8AAA^^/ 8AA	.	.	.	.	.	.	.	.	.	.	.	.	.	.	.	.	.	.	.	.	.	.	.	.	.	.	.
8r	8r	.	8r	8r	.	8r	8ryy	.	.	.	.	8r	8ryy	.	.	.	.	.	.	.	.	.	.	.	.	.	.
*	*	*	*	*	*	*v	*v	*	*	*	*	*	*	*	*	*	*	*	*	*	*	*	*	*	*	*	*
*	*	*	*	*	*	*	*	*	*	*	*v	*v	*	*	*	*	*	*	*	*	*	*	*	*	*	*
*	*	*	*	*X8va	*	*	*	*	*	*	*	*	*	*	*	*	*	*	*	*	*	*	*	*	*
=:|!	=:|!	=:|!	=:|!	=:|!	=:|!	=:|!	=:|!	=:|!	=:|!	=:|!	=:|!	=:|!	=:|!	=:|!	=:|!	=:|!	=:|!	=:|!	=:|!	=:|!	=:|!	=:|!	=:|!	=:|!	=:|!
*-	*-	*-	*-	*-	*-	*-	*-	*-	*-	*-	*-	*-	*-	*-	*-	*-	*-	*-	*-	*-	*-	*-	*-	*-	*-
!!!system-decoration: {{(s1,s2,s3,s4)}{(s5,s6)}{(s7,s8)}}
!!!ENC: Marcin Jachim
!!!END: 2021-05-11
!!!ENC-modern: Andrzej Borzym
!!!END-modern: 2022-08-22
!!!YEC: Copyright 2022 Narodowy Instytut Fryderyka Chopina (https://polishscores.org)
!!!YEM: License CC-BY-4.0 (https://creativecommons.org/licenses/by/4.0)
